source/img/what-we-do/1.svg

<svg width="192" height="132" viewBox="0 0 192 132" fill="none" xmlns="http://www.w3.org/2000/svg">
<path d="M191.995 66C191.988 78.1292 188.67 90.0225 182.403 100.377C176.136 110.731 167.163 119.146 156.467 124.701C155.841 125.031 155.205 125.347 154.564 125.652C154.276 125.795 153.993 125.927 153.7 126.06C151.872 126.905 149.997 127.663 148.075 128.335C146.56 128.869 145.005 129.353 143.435 129.77C128.603 133.752 112.856 132.371 98.9295 125.866C98.3589 125.596 97.7883 125.322 97.2279 125.037C86.8009 119.779 77.9557 111.81 71.6062 101.952C65.2567 92.0955 61.6331 80.7081 61.1099 68.967C60.5867 57.2258 63.1828 45.5568 68.6301 35.1656C74.0773 24.7743 82.178 16.0377 92.0953 9.85855C102.013 3.67936 113.387 0.28168 125.042 0.0165558C136.698 -0.248568 148.213 2.62848 158.396 8.35045C168.58 14.0724 177.063 22.4318 182.97 32.5647C188.876 42.6977 191.992 54.2368 191.995 65.9898V66Z" fill="url(#paint0_linear)"/>
<path d="M100.854 106.742L93.623 95.3554C93.623 95.3554 113.654 72.0115 115.659 70.6321C115.659 70.6321 105.555 87.72 100.854 106.742Z" fill="url(#paint1_linear)"/>
<path d="M93.623 95.3553L79.9896 107.572L54.9093 95.3553L35.7217 96.4141C35.7217 96.4141 47.6735 100.486 51.0364 100.318L54.4044 100.15C54.4044 100.15 75.0008 120.17 79.7372 121.697C84.4735 123.224 100.031 111.252 100.031 111.252L100.934 106.778L93.623 95.3553Z" fill="url(#paint2_linear)"/>
<path d="M131.241 67.8681C129.346 68.7928 127.309 69.385 125.217 69.6191C122.798 69.9856 119.122 68.6316 119.122 68.6316C121.899 66.4276 121.253 61.2304 121.253 61.2304L121.313 61.1999C124.277 60.9708 126.757 59.2758 128.489 57.6367C127.863 62.0856 131.241 67.8681 131.241 67.8681Z" fill="url(#paint3_linear)"/>
<path d="M131.241 51.3146V54.3688C130.452 55.5553 129.53 56.6466 128.494 57.6214C126.762 59.2656 124.283 60.9606 121.319 61.1846C119.972 61.2883 118.62 61.0884 117.36 60.5992C109.281 57.5451 114.962 41.3836 114.962 41.3836C117.527 34.807 129.14 37.9884 129.14 37.9884C130.695 39.8565 130.993 45.074 130.933 45.583C130.674 46.2982 130.335 46.9813 129.923 47.6191C129.923 47.6191 132.13 45.5219 132.887 46.9167C133.644 48.3114 131.241 51.3146 131.241 51.3146Z" fill="url(#paint4_linear)"/>
<path d="M131.241 54.379V51.3249C131.241 51.3249 133.639 48.3471 132.882 46.9422C132.125 45.5373 129.918 47.6446 129.918 47.6446C130.33 47.0068 130.669 46.3237 130.928 45.6085C130.988 45.0995 130.736 40.1772 129.135 38.0139C129.135 38.0139 117.522 34.8325 114.957 41.4091C114.957 41.4091 111.634 40.559 108.771 36.5734C104.09 30.0528 109.68 29.2536 115.219 30.5109C121.94 32.038 128.676 27.0292 136.376 32.1194C144.076 37.2096 137.174 48.7797 131.241 54.379Z" fill="#262F72"/>
<g filter="url(#filter0_d)">
<path d="M78.3838 25.9602H12.8681C11.2841 25.9602 10 27.2547 10 28.8515V89.751C10 91.3478 11.2841 92.6423 12.8681 92.6423H78.3838C79.9678 92.6423 81.2519 91.3478 81.2519 89.751V28.8515C81.2519 27.2547 79.9678 25.9602 78.3838 25.9602Z" fill="white"/>
</g>
<path d="M20.9116 38.0444C20.7297 38.2519 20.4961 38.4065 20.235 38.4924C19.9234 38.6014 19.5953 38.6548 19.2655 38.6502C18.9232 38.658 18.5851 38.5737 18.2859 38.4058C18.0025 38.2399 17.7755 37.9915 17.6346 37.6932C17.4741 37.3495 17.3929 36.9736 17.3972 36.5937V36.2985C17.3881 35.9121 17.4621 35.5283 17.6144 35.1735C17.7452 34.8726 17.9636 34.6188 18.2405 34.4456C18.5756 34.2627 18.9544 34.1768 19.3349 34.1975C19.7155 34.2181 20.0829 34.3445 20.3966 34.5627C20.6978 34.8403 20.879 35.2259 20.9015 35.6367H20.0381C20.0185 35.4292 19.9253 35.2358 19.7755 35.0921C19.6168 34.9694 19.4198 34.9081 19.2201 34.919C19.0854 34.9114 18.9512 34.9388 18.8301 34.9985C18.7089 35.0582 18.605 35.1483 18.5283 35.2601C18.3511 35.5683 18.2685 35.9226 18.291 36.2781V36.553C18.2691 36.9111 18.3592 37.2672 18.5485 37.571C18.6359 37.6871 18.7501 37.7799 18.8813 37.8411C19.0125 37.9024 19.1565 37.9302 19.3009 37.9223C19.5565 37.9448 19.8111 37.8683 20.0128 37.7085V36.9602H19.2049V36.3036H20.9015L20.9116 38.0444Z" fill="#64B5F6"/>
<path d="M72.8299 34.1912H26.4059C25.8398 34.1912 25.3809 34.6538 25.3809 35.2245V38.9811C25.3809 39.5518 25.8398 40.0144 26.4059 40.0144H72.8299C73.396 40.0144 73.8549 39.5518 73.8549 38.9811V35.2245C73.8549 34.6538 73.396 34.1912 72.8299 34.1912Z" fill="#E7EEF2"/>
<path d="M73.8549 43.3026H25.3809V44.3207H73.8549V43.3026Z" fill="#BBDEFB"/>
<path d="M73.8549 45.5933H25.3809V46.6113H73.8549V45.5933Z" fill="#E7E8E9"/>
<path d="M73.8549 47.8838H25.3809V48.9018H73.8549V47.8838Z" fill="#E7E8E9"/>
<path d="M73.8549 50.1744H25.3809V51.1925H73.8549V50.1744Z" fill="#E7E8E9"/>
<path d="M73.8549 54.4604H25.3809V55.4785H73.8549V54.4604Z" fill="#BBDEFB"/>
<path d="M73.8549 56.751H25.3809V57.769H73.8549V56.751Z" fill="#E7E8E9"/>
<path d="M73.8549 59.0416H25.3809V60.0597H73.8549V59.0416Z" fill="#E7E8E9"/>
<path d="M73.8549 61.3323H25.3809V62.3503H73.8549V61.3323Z" fill="#E7E8E9"/>
<path d="M73.8549 65.491H25.3809V66.509H73.8549V65.491Z" fill="#BBDEFB"/>
<path d="M73.8549 67.7816H25.3809V68.7997H73.8549V67.7816Z" fill="#E7E8E9"/>
<path d="M73.8549 70.0721H25.3809V71.0902H73.8549V70.0721Z" fill="#E7E8E9"/>
<path d="M73.8549 72.3628H25.3809V73.3809H73.8549V72.3628Z" fill="#E7E8E9"/>
<path d="M73.8549 76.5215H25.3809V77.5395H73.8549V76.5215Z" fill="#BBDEFB"/>
<path d="M73.8549 78.8121H25.3809V79.8302H73.8549V78.8121Z" fill="#E7E8E9"/>
<path d="M73.8549 81.1027H25.3809V82.1207H73.8549V81.1027Z" fill="#E7E8E9"/>
<path d="M73.8549 83.3933H25.3809V84.4114H73.8549V83.3933Z" fill="#E7E8E9"/>
<path d="M148.707 92.4591C152.161 102.823 154.721 114.82 156.468 124.701C155.842 125.032 155.206 125.347 154.564 125.653C154.276 125.795 153.994 125.927 153.701 126.06C151.873 126.905 149.998 127.663 148.076 128.335C146.561 128.87 145.006 129.353 143.435 129.771C128.604 133.752 112.857 132.371 98.9302 125.866C98.3596 125.597 97.789 125.322 97.2285 125.037C98.2384 119.809 99.4401 113.665 100.849 106.747C101.361 104.24 101.898 101.63 102.46 98.9186C105.353 85.0273 109.504 77.4633 112.932 73.3656L112.967 73.3249C113.619 72.5459 114.324 71.8144 115.078 71.1361C115.099 71.1114 115.123 71.0893 115.149 71.0699C115.32 70.9172 115.492 70.7747 115.654 70.6372C117.719 68.9422 119.123 68.6317 119.123 68.6317L119.249 68.6775H119.32C120.416 69.1135 121.566 69.3994 122.738 69.5276H122.935H122.965C123.714 69.5998 124.467 69.6117 125.217 69.5632H125.263C127.347 69.4293 129.377 68.8387 131.211 67.8325C133.362 68.5497 135.388 69.6026 137.215 70.9528C142.436 74.8163 152.954 88.9825 152.954 88.9825L148.707 92.4591Z" fill="url(#paint5_linear)"/>
<path d="M167.939 111.802C167.909 113.217 166.632 116.088 164.763 119.57C162.127 121.487 159.352 123.202 156.462 124.701C155.836 125.031 155.2 125.347 154.558 125.652C154.271 125.795 153.988 125.927 153.695 126.06C151.867 126.905 149.992 127.663 148.07 128.335L152.948 112.662L140.324 99.3003L148.701 92.459L152.948 88.9926C152.948 88.9926 168.071 106.33 167.939 111.802Z" fill="url(#paint6_linear)"/>
<defs>
<filter id="filter0_d" x="0" y="19.9602" width="91.2519" height="86.6821" filterUnits="userSpaceOnUse" color-interpolation-filters="sRGB">
<feFlood flood-opacity="0" result="BackgroundImageFix"/>
<feColorMatrix in="SourceAlpha" type="matrix" values="0 0 0 0 0 0 0 0 0 0 0 0 0 0 0 0 0 0 127 0" result="hardAlpha"/>
<feOffset dy="4"/>
<feGaussianBlur stdDeviation="5"/>
<feColorMatrix type="matrix" values="0 0 0 0 0 0 0 0 0 0 0 0 0 0 0 0 0 0 0.15 0"/>
<feBlend mode="normal" in2="BackgroundImageFix" result="effect1_dropShadow"/>
<feBlend mode="normal" in="SourceGraphic" in2="effect1_dropShadow" result="shape"/>
</filter>
<linearGradient id="paint0_linear" x1="126.788" y1="7.16742" x2="124.512" y2="137.263" gradientUnits="userSpaceOnUse">
<stop stop-color="white" stop-opacity="0"/>
<stop offset="1" stop-color="#64B5F6" stop-opacity="0.6"/>
</linearGradient>
<linearGradient id="paint1_linear" x1="106.231" y1="68.2091" x2="102.384" y2="103.452" gradientUnits="userSpaceOnUse">
<stop stop-color="#42A5F5"/>
<stop offset="1" stop-color="#1565C0"/>
</linearGradient>
<linearGradient id="paint2_linear" x1="62.5339" y1="105.322" x2="104.455" y2="110.833" gradientUnits="userSpaceOnUse">
<stop stop-color="#FFE082"/>
<stop offset="1" stop-color="#FFA726"/>
</linearGradient>
<linearGradient id="paint3_linear" x1="9417.78" y1="2544.52" x2="9420.77" y2="2315.66" gradientUnits="userSpaceOnUse">
<stop stop-color="#FFE082"/>
<stop offset="1" stop-color="#FFA726"/>
</linearGradient>
<linearGradient id="paint4_linear" x1="14987.3" y1="4075.82" x2="15780.5" y2="4075.82" gradientUnits="userSpaceOnUse">
<stop stop-color="#FFE082"/>
<stop offset="1" stop-color="#FFA726"/>
</linearGradient>
<linearGradient id="paint5_linear" x1="42948.6" y1="15103.6" x2="48847.7" y2="20773.6" gradientUnits="userSpaceOnUse">
<stop stop-color="#42A5F5"/>
<stop offset="1" stop-color="#1565C0"/>
</linearGradient>
<linearGradient id="paint6_linear" x1="23009.9" y1="12265.9" x2="22606.5" y2="9747.27" gradientUnits="userSpaceOnUse">
<stop stop-color="#FFE082"/>
<stop offset="1" stop-color="#FFA726"/>
</linearGradient>
</defs>
</svg>

<svg width="192" height="132" fill="none" xmlns="http://www.w3.org/2000/svg"><path d="M192 66a66.48 66.48 0 0 1-9.6 34.38 65.76 65.76 0 0 1-34.33 27.96 65.18 65.18 0 0 1-76.47-26.38 66.37 66.37 0 0 1-2.97-66.8A65.8 65.8 0 0 1 92.1 9.87a65.1 65.1 0 0 1 66.3-1.51 65.73 65.73 0 0 1 24.57 24.21A66.42 66.42 0 0 1 192 66V66Z" fill="url(#a)"/><path d="m100.85 106.74-7.23-11.38S113.65 72 115.66 70.63c0 0-10.1 17.09-14.8 36.11Z" fill="url(#b)"/><path d="M93.62 95.36 80 107.57 54.91 95.36 35.72 96.4s11.95 4.08 15.32 3.9l3.36-.16S75 120.17 79.74 121.7c4.73 1.52 20.3-10.45 20.3-10.45l.9-4.47-7.32-11.42Z" fill="url(#c)"/><path d="M131.24 67.87a18.4 18.4 0 0 1-6.02 1.75c-2.42.37-6.1-.99-6.1-.99 2.78-2.2 2.13-7.4 2.13-7.4l.06-.03c2.97-.23 5.45-1.92 7.18-3.56-.63 4.45 2.75 10.23 2.75 10.23Z" fill="url(#d)"/><path d="M131.24 51.31v3.06a18.63 18.63 0 0 1-2.75 3.25c-1.73 1.65-4.2 3.34-7.17 3.56-1.35.1-2.7-.1-3.96-.58-8.08-3.05-2.4-19.22-2.4-19.22 2.57-6.57 14.18-3.4 14.18-3.4 1.56 1.88 1.85 7.1 1.8 7.6-.27.72-.6 1.4-1.02 2.04 0 0 2.21-2.1 2.97-.7.75 1.4-1.65 4.4-1.65 4.4Z" fill="url(#e)"/><path d="M131.24 54.38v-3.06s2.4-2.97 1.64-4.38c-.75-1.4-2.96.7-2.96.7.41-.63.75-1.32 1-2.03.07-.51-.18-5.43-1.78-7.6 0 0-11.62-3.18-14.18 3.4 0 0-3.33-.85-6.19-4.84-4.68-6.52.91-7.32 6.45-6.06 6.72 1.53 13.46-3.48 21.16 1.6 7.7 5.1.8 16.67-5.14 22.27Z" fill="#262F72"/><g filter="url(#f)"><path d="M78.38 25.96H12.87a2.88 2.88 0 0 0-2.87 2.9v60.9c0 1.59 1.28 2.88 2.87 2.88h65.51c1.59 0 2.87-1.3 2.87-2.89v-60.9c0-1.6-1.28-2.89-2.87-2.89Z" fill="#fff"/></g><path d="M20.91 38.04c-.18.21-.41.37-.68.45-.3.11-.63.16-.96.16-.35 0-.68-.08-.98-.24a1.63 1.63 0 0 1-.66-.72 2.53 2.53 0 0 1-.23-1.1v-.3c-.01-.38.06-.76.21-1.12.14-.3.35-.55.63-.72a2.05 2.05 0 0 1 2.16.11c.3.28.48.67.5 1.08h-.86a.87.87 0 0 0-.26-.55.83.83 0 0 0-.56-.17.78.78 0 0 0-.7.34c-.17.3-.25.66-.23 1.02v.27c-.02.36.07.72.26 1.02a.89.89 0 0 0 .75.35 1 1 0 0 0 .71-.21v-.75h-.8v-.66h1.7v1.74Z" fill="#64B5F6"/><path d="M72.83 34.2H26.41c-.57 0-1.03.45-1.03 1.02v3.76c0 .57.46 1.03 1.03 1.03h46.42c.57 0 1.02-.46 1.02-1.03v-3.76c0-.57-.45-1.03-1.02-1.03Z" fill="#E7EEF2"/><path d="M73.85 43.3H25.38v1.02h48.47V43.3Z" fill="#BBDEFB"/><path d="M73.85 45.6H25.38v1.01h48.47V45.6ZM73.85 47.88H25.38v1.02h48.47v-1.02ZM73.85 50.17H25.38v1.02h48.47v-1.02Z" fill="#E7E8E9"/><path d="M73.85 54.46H25.38v1.02h48.47v-1.02Z" fill="#BBDEFB"/><path d="M73.85 56.75H25.38v1.02h48.47v-1.02ZM73.85 59.04H25.38v1.02h48.47v-1.02ZM73.85 61.33H25.38v1.02h48.47v-1.02Z" fill="#E7E8E9"/><path d="M73.85 65.5H25.38v1h48.47v-1Z" fill="#BBDEFB"/><path d="M73.85 67.78H25.38v1.02h48.47v-1.02ZM73.85 70.07H25.38v1.02h48.47v-1.02ZM73.85 72.36H25.38v1.02h48.47v-1.02Z" fill="#E7E8E9"/><path d="M73.85 76.52H25.38v1.02h48.47v-1.02Z" fill="#BBDEFB"/><path d="M73.85 78.81H25.38v1.02h48.47v-1.02ZM73.85 81.1H25.38v1.02h48.47V81.1ZM73.85 83.4H25.38v1.01h48.47V83.4Z" fill="#E7E8E9"/><path d="M148.7 92.46c3.46 10.36 6.02 22.36 7.77 32.24a51.18 51.18 0 0 1-2.77 1.36 62.77 62.77 0 0 1-10.26 3.71 65.19 65.19 0 0 1-46.21-4.73 1823.49 1823.49 0 0 1 5.23-26.12c2.9-13.9 7.04-21.46 10.47-25.55l.04-.05a21.53 21.53 0 0 1 2.18-2.25l.5-.43c2.07-1.7 3.47-2 3.47-2l.13.04h.07c1.1.43 2.25.72 3.42.85h.23c.74.07 1.5.08 2.25.03h.04c2.09-.13 4.12-.72 5.95-1.73a21.6 21.6 0 0 1 6 3.12c5.23 3.87 15.74 18.03 15.74 18.03l-4.24 3.48Z" fill="url(#g)"/><path d="M167.94 111.8c-.03 1.42-1.3 4.29-3.18 7.77a65 65 0 0 1-16.69 8.77l4.88-15.68-12.63-13.36 8.38-6.84 4.25-3.47s15.12 17.34 14.99 22.81Z" fill="url(#h)"/><defs><linearGradient id="a" x1="126.79" y1="7.17" x2="124.51" y2="137.26" gradientUnits="userSpaceOnUse"><stop stop-color="#fff" stop-opacity="0"/><stop offset="1" stop-color="#64B5F6" stop-opacity=".6"/></linearGradient><linearGradient id="b" x1="106.23" y1="68.21" x2="102.38" y2="103.45" gradientUnits="userSpaceOnUse"><stop stop-color="#42A5F5"/><stop offset="1" stop-color="#1565C0"/></linearGradient><linearGradient id="c" x1="62.53" y1="105.32" x2="104.45" y2="110.83" gradientUnits="userSpaceOnUse"><stop stop-color="#FFE082"/><stop offset="1" stop-color="#FFA726"/></linearGradient><linearGradient id="d" x1="9417.78" y1="2544.52" x2="9420.77" y2="2315.66" gradientUnits="userSpaceOnUse"><stop stop-color="#FFE082"/><stop offset="1" stop-color="#FFA726"/></linearGradient><linearGradient id="e" x1="14987.3" y1="4075.82" x2="15780.5" y2="4075.82" gradientUnits="userSpaceOnUse"><stop stop-color="#FFE082"/><stop offset="1" stop-color="#FFA726"/></linearGradient><linearGradient id="g" x1="42948.6" y1="15103.6" x2="48847.7" y2="20773.6" gradientUnits="userSpaceOnUse"><stop stop-color="#42A5F5"/><stop offset="1" stop-color="#1565C0"/></linearGradient><linearGradient id="h" x1="23009.9" y1="12265.9" x2="22606.5" y2="9747.27" gradientUnits="userSpaceOnUse"><stop stop-color="#FFE082"/><stop offset="1" stop-color="#FFA726"/></linearGradient><filter id="f" x="0" y="19.96" width="91.25" height="86.68" filterUnits="userSpaceOnUse" color-interpolation-filters="sRGB"><feFlood flood-opacity="0" result="BackgroundImageFix"/><feColorMatrix in="SourceAlpha" values="0 0 0 0 0 0 0 0 0 0 0 0 0 0 0 0 0 0 127 0" result="hardAlpha"/><feOffset dy="4"/><feGaussianBlur stdDeviation="5"/><feColorMatrix values="0 0 0 0 0 0 0 0 0 0 0 0 0 0 0 0 0 0 0.15 0"/><feBlend in2="BackgroundImageFix" result="effect1_dropShadow"/><feBlend in="SourceGraphic" in2="effect1_dropShadow" result="shape"/></filter></defs></svg>
